images/sd-desktop.svg

<svg width="142" height="129" viewBox="0 0 142 129" fill="none" xmlns="http://www.w3.org/2000/svg">
<path fill-rule="evenodd" clip-rule="evenodd" d="M63.119 115.928H2.5H0.5V116.389C0.5 116.911 0.533282 117.424 0.597839 117.928C1.3535 123.829 6.39421 128.389 12.5 128.389H130C136.106 128.389 141.146 123.829 141.902 117.928C141.967 117.424 142 116.911 142 116.389V115.928H140H82.2186V117.701C82.2186 117.902 82.1595 118.089 82.0578 118.246C81.7594 118.975 81.0427 119.488 80.2061 119.488H65.0867C64.1527 119.488 63.3682 118.848 63.1482 117.983H63.1591C63.133 117.893 63.119 117.799 63.119 117.701V115.928ZM139.882 117.928H84.1822C83.9631 119.931 82.2665 121.488 80.2061 121.488H65.0867C63.0262 121.488 61.3296 119.931 61.1106 117.928H2.61778C3.35825 122.72 7.50071 126.389 12.5 126.389H130C134.999 126.389 139.142 122.72 139.882 117.928Z" fill="black"/>
<path fill-rule="evenodd" clip-rule="evenodd" d="M33 32.7739H11.7302C8.41652 32.7739 5.73022 35.4602 5.73022 38.7739V111.071V112.071H6.73022H23.5V110.071H7.73022V38.7739C7.73022 36.5648 9.52108 34.7739 11.7302 34.7739H33V32.7739ZM113 34.7739H130.77C132.979 34.7739 134.77 36.5648 134.77 38.7739V110.071H122.25V112.071H135.77H136.77V111.071V38.7739C136.77 35.4602 134.083 32.7739 130.77 32.7739H113V34.7739ZM54.0625 110.071H91.125V112.071H54.0625V110.071Z" fill="black"/>
<path d="M42.1418 71.6633C39.121 69.7684 39.1658 65.7713 42.2285 63.9304L68.291 48.2645C70.0786 47.19 72.4212 47.19 74.2088 48.2645L100.271 63.9304C103.334 65.7713 103.379 69.7684 100.358 71.6633L74.2955 88.012C72.4694 89.1575 70.0304 89.1575 68.2042 88.012L42.1418 71.6633Z" fill="white" stroke="black" stroke-width="2"/>
<path d="M42.1418 54.7958C39.121 52.9008 39.1658 48.9038 42.2285 47.0628L68.291 31.397C70.0786 30.3225 72.4212 30.3225 74.2088 31.397L100.271 47.0628C103.334 48.9038 103.379 52.9008 100.358 54.7958L74.2955 71.1445C72.4694 72.29 70.0304 72.29 68.2042 71.1445L42.1418 54.7958Z" fill="white" stroke="#7ACC00" stroke-width="2"/>
<path d="M42.1418 37.9282C39.121 36.0333 39.1658 32.0362 42.2285 30.1952L68.291 14.5294C70.0786 13.4549 72.4212 13.4549 74.2088 14.5294L100.271 30.1953C103.334 32.0362 103.379 36.0333 100.358 37.9282L74.2955 54.2769C72.4694 55.4224 70.0304 55.4224 68.2042 54.2769L42.1418 37.9282Z" fill="white" stroke="black" stroke-width="2"/>
<path d="M42.1418 71.6633C39.121 69.7684 39.1658 65.7713 42.2285 63.9304L68.291 48.2645C70.0786 47.19 72.4212 47.19 74.2088 48.2645L100.271 63.9304C103.334 65.7713 103.379 69.7684 100.358 71.6633L74.2955 88.012C72.4694 89.1575 70.0304 89.1575 68.2042 88.012L42.1418 71.6633Z" fill="white" stroke="black" stroke-width="2"/>
<path d="M42.1418 54.7958C39.121 52.9008 39.1658 48.9038 42.2285 47.0628L68.291 31.397C70.0786 30.3225 72.4212 30.3225 74.2088 31.397L100.271 47.0628C103.334 48.9038 103.379 52.9008 100.358 54.7958L74.2955 71.1445C72.4694 72.29 70.0304 72.29 68.2042 71.1445L42.1418 54.7958Z" fill="white" stroke="#7ACC00" stroke-width="2"/>
<path d="M42.1418 37.9282C39.121 36.0333 39.1658 32.0362 42.2285 30.1952L68.291 14.5294C70.0786 13.4549 72.4212 13.4549 74.2088 14.5294L100.271 30.1953C103.334 32.0362 103.379 36.0333 100.358 37.9282L74.2955 54.2769C72.4694 55.4224 70.0304 55.4224 68.2042 54.2769L42.1418 37.9282Z" fill="white" stroke="black" stroke-width="2"/>
<path fill-rule="evenodd" clip-rule="evenodd" d="M19.79 42.4793C19.9518 42.4612 20.1165 42.452 20.2836 42.452H20.8903V41.252H20.2836C20.072 41.252 19.8629 41.2637 19.657 41.2867L19.79 42.4793ZM23.9241 42.452H25.1375V41.252H23.9241V42.452ZM28.1713 42.452H29.3847V41.252H28.1713V42.452ZM32.4185 42.452H33.6319V41.252H32.4185V42.452ZM113.115 42.452H114.329V41.252H113.115V42.452ZM117.362 42.452H118.576V41.252H117.362V42.452ZM121.61 42.452H122.216C122.384 42.452 122.548 42.4612 122.71 42.4793L122.843 41.2867C122.637 41.2637 122.428 41.252 122.216 41.252H121.61V42.452ZM16.8431 44.1088C17.0488 43.8512 17.2829 43.6172 17.5405 43.4115L16.7917 42.4738C16.4643 42.7352 16.1668 43.0326 15.9054 43.36L16.8431 44.1088ZM124.96 43.4115C125.217 43.6172 125.451 43.8512 125.657 44.1088L126.595 43.36C126.333 43.0326 126.036 42.7352 125.708 42.4738L124.96 43.4115ZM15.8836 46.8519C15.8836 46.6849 15.8929 46.5202 15.9109 46.3583L14.7183 46.2254C14.6954 46.4313 14.6836 46.6404 14.6836 46.8519V47.4689H15.8836V46.8519ZM126.589 46.3583C126.607 46.5202 126.616 46.6849 126.616 46.852V47.4689H127.816V46.852C127.816 46.6404 127.805 46.4313 127.782 46.2254L126.589 46.3583ZM126.616 50.5535V51.7874H127.816V50.5535H126.616ZM15.8836 51.7874V50.5535H14.6836V51.7874H15.8836ZM126.616 54.872V56.1059H127.816V54.872H126.616ZM15.8836 56.1059V54.872H14.6836V56.1059H15.8836ZM126.616 59.1905V60.4244H127.816V59.1905H126.616ZM15.8836 60.4244V59.1905H14.6836V60.4244H15.8836ZM15.8836 64.7429V63.509H14.6836V64.7429H15.8836ZM126.616 63.509V64.7429H127.816V63.509H126.616ZM15.8836 69.0614V67.8275H14.6836V69.0614H15.8836ZM126.616 67.8275V69.0614H127.816V67.8275H126.616ZM15.8836 73.3799V72.146H14.6836V73.3799H15.8836ZM126.616 72.146V73.3799H127.816V72.146H126.616ZM15.8836 77.6984V76.4645H14.6836V77.6984H15.8836ZM126.616 76.4645V77.6984H127.816V76.4645H126.616ZM15.8836 82.0169V80.783H14.6836V82.0169H15.8836ZM126.616 80.783V82.0169H127.816V80.783H126.616ZM15.8836 86.3354V85.1015H14.6836V86.3354H15.8836ZM126.616 85.1015V86.3354H127.816V85.1015H126.616ZM15.8836 90.6539V89.42H14.6836V90.6539H15.8836ZM126.616 89.42V90.6539H127.816V89.42H126.616ZM126.616 93.7385V94.9724H127.816V93.7385H126.616ZM15.8836 94.9724V93.7385H14.6836V94.9724H15.8836ZM126.616 98.057V99.2909H127.816V98.057H126.616ZM15.8836 99.2909V98.057H14.6836V99.2909H15.8836ZM126.616 102.375V102.992H126.624V103.592H127.216H127.816V102.992V102.375H126.616ZM15.8836 102.992V102.376H14.6836V102.992V103.592H15.2836H15.8758V102.992H15.8836ZM20.0215 102.392H18.837V103.592H20.0215V102.392ZM24.1672 102.392H22.9827V103.592H24.1672V102.392ZM28.3128 102.392H27.1283V103.592H28.3128V102.392ZM32.4585 102.392H31.274V103.592H32.4585V102.392ZM36.6041 102.392H35.4197V103.592H36.6041V102.392ZM40.7498 102.392H39.5653V103.592H40.7498V102.392ZM44.8955 102.392H43.711V103.592H44.8955V102.392ZM49.0411 102.392H47.8566V103.592H49.0411V102.392ZM53.1868 102.392H52.0023V103.592H53.1868V102.392ZM57.3324 102.392H56.148V103.592H57.3324V102.392ZM61.4781 102.392H60.2936V103.592H61.4781V102.392ZM65.6238 102.392H64.4393V103.592H65.6238V102.392ZM69.7694 102.392H68.5849V103.592H69.7694V102.392ZM73.9151 102.392H72.7306V103.592H73.9151V102.392ZM78.0607 102.392H76.8763V103.592H78.0607V102.392ZM82.2064 102.392H81.0219V103.592H82.2064V102.392ZM86.3521 102.392H85.1676V103.592H86.3521V102.392ZM90.4977 102.392H89.3132V103.592H90.4977V102.392ZM94.6434 102.392H93.4589V103.592H94.6434V102.392ZM98.789 102.392H97.6046V103.592H98.789V102.392ZM102.935 102.392H101.75V103.592H102.935V102.392ZM107.08 102.392H105.896V103.592H107.08V102.392ZM111.226 102.392H110.042V103.592H111.226V102.392ZM115.372 102.392H114.187V103.592H115.372V102.392ZM119.517 102.392H118.333V103.592H119.517V102.392ZM123.663 102.392H122.479V103.592H123.663V102.392Z" fill="black"/>
</svg>

<?xml version="1.0" encoding="utf-8"?>
<!-- Generator: Adobe Illustrator 23.0.1, SVG Export Plug-In . SVG Version: 6.00 Build 0)  -->
<svg version="1.1" id="Layer_1" xmlns="http://www.w3.org/2000/svg" xmlns:xlink="http://www.w3.org/1999/xlink" x="0px" y="0px"
	 viewBox="0 0 142 129" style="enable-background:new 0 0 142 129;" xml:space="preserve">
<style type="text/css">
	.st0{fill-rule:evenodd;clip-rule:evenodd;fill:#2C3544;}
	.st1{fill:#2C3544;}
	.st2{fill:#FFFFFF;stroke:#7ACC00;stroke-width:2;}
	.st3{fill:#FFFFFF;stroke:#000000;stroke-width:2;}
	.st4{fill:#FFFFFF;}
</style>
<path class="st0" d="M63.1,115.9H2.5h-2v0.5c0,0.5,0,1,0.1,1.5c0.8,5.9,5.8,10.5,11.9,10.5H130c6.1,0,11.1-4.6,11.9-10.5
	c0.1-0.5,0.1-1,0.1-1.5v-0.5h-2H82.2v1.8c0,0.2-0.1,0.4-0.2,0.5c-0.3,0.7-1,1.2-1.9,1.2H65.1c-0.9,0-1.7-0.6-1.9-1.5h0
	c0-0.1,0-0.2,0-0.3V115.9z M139.9,117.9H84.2c-0.2,2-1.9,3.6-4,3.6H65.1c-2.1,0-3.8-1.6-4-3.6H2.6c0.7,4.8,4.9,8.5,9.9,8.5H130
	C135,126.4,139.1,122.7,139.9,117.9z"/>
<path class="st0" d="M33,32.8H11.7c-3.3,0-6,2.7-6,6v72.3v1h1h16.8v-2H7.7V38.8c0-2.2,1.8-4,4-4H33V32.8z M113,34.8h17.8
	c2.2,0,4,1.8,4,4v71.3h-12.5v2h13.5h1v-1V38.8c0-3.3-2.7-6-6-6H113V34.8z M54.1,110.1h37.1v2H54.1V110.1z"/>
<path class="st1" d="M71.3,89.9c-1.3,0-2.5-0.3-3.6-1L41.6,72.5c-1.7-1.1-2.7-2.8-2.7-4.7c0-1.9,1.1-3.7,2.8-4.7l26.1-15.7
	c2.1-1.3,4.8-1.3,6.9,0l26.1,15.7c1.7,1,2.8,2.8,2.8,4.7c0,1.9-1,3.7-2.7,4.7L74.8,88.9C73.8,89.5,72.5,89.9,71.3,89.9z M71.3,48.5
	c-0.9,0-1.7,0.2-2.4,0.7L42.7,64.8c-1.2,0.7-1.8,1.8-1.8,3c0,1.2,0.6,2.3,1.8,3l26.1,16.3c1.5,0.9,3.5,0.9,5,0l26.1-16.3
	c1.1-0.7,1.8-1.8,1.8-3c0-1.2-0.7-2.3-1.8-3L73.7,49.1C73,48.7,72.1,48.5,71.3,48.5z"/>
<path class="st2" d="M42.1,54.8c-3-1.9-3-5.9,0.1-7.7l26.1-15.7c1.8-1.1,4.1-1.1,5.9,0l26.1,15.7c3.1,1.8,3.1,5.8,0.1,7.7L74.3,71.1
	c-1.8,1.1-4.3,1.1-6.1,0L42.1,54.8z"/>
<path class="st3" d="M42.1,37.9c-3-1.9-3-5.9,0.1-7.7l26.1-15.7c1.8-1.1,4.1-1.1,5.9,0l26.1,15.7c3.1,1.8,3.1,5.8,0.1,7.7L74.3,54.3
	c-1.8,1.1-4.3,1.1-6.1,0L42.1,37.9z"/>
<path class="st2" d="M42.1,54.8c-3-1.9-3-5.9,0.1-7.7l26.1-15.7c1.8-1.1,4.1-1.1,5.9,0l26.1,15.7c3.1,1.8,3.1,5.8,0.1,7.7L74.3,71.1
	c-1.8,1.1-4.3,1.1-6.1,0L42.1,54.8z"/>
<path class="st4" d="M42.1,37.9c-3-1.9-3-5.9,0.1-7.7l26.1-15.7c1.8-1.1,4.1-1.1,5.9,0l26.1,15.7c3.1,1.8,3.1,5.8,0.1,7.7L74.3,54.3
	c-1.8,1.1-4.3,1.1-6.1,0L42.1,37.9z"/>
<path class="st1" d="M71.3,56.1c-1.3,0-2.5-0.3-3.6-1L41.6,38.8c-1.7-1.1-2.7-2.8-2.7-4.7c0-1.9,1.1-3.7,2.8-4.7l26.1-15.7
	c2.1-1.3,4.8-1.3,6.9,0l26.1,15.7c1.7,1,2.8,2.8,2.8,4.7c0,1.9-1,3.7-2.7,4.7L74.8,55.1C73.8,55.8,72.5,56.1,71.3,56.1z M42.7,37.1
	l26.1,16.3c1.5,0.9,3.5,0.9,5,0l26.1-16.3c1.1-0.7,1.8-1.8,1.8-3c0-1.2-0.7-2.3-1.8-3L73.7,15.4c-1.5-0.9-3.4-0.9-4.9,0L42.7,31.1
	c-1.2,0.7-1.8,1.8-1.8,3C40.9,35.3,41.5,36.4,42.7,37.1L42.7,37.1z"/>
<path class="st0" d="M19.8,42.5c0.2,0,0.3,0,0.5,0h0.6v-1.2h-0.6c-0.2,0-0.4,0-0.6,0L19.8,42.5z M23.9,42.5h1.2v-1.2h-1.2V42.5z
	 M28.2,42.5h1.2v-1.2h-1.2V42.5z M32.4,42.5h1.2v-1.2h-1.2V42.5z M113.1,42.5h1.2v-1.2h-1.2V42.5z M117.4,42.5h1.2v-1.2h-1.2V42.5z
	 M121.6,42.5h0.6c0.2,0,0.3,0,0.5,0l0.1-1.2c-0.2,0-0.4,0-0.6,0h-0.6V42.5z M16.8,44.1c0.2-0.3,0.4-0.5,0.7-0.7l-0.7-0.9
	c-0.3,0.3-0.6,0.6-0.9,0.9L16.8,44.1z M125,43.4c0.3,0.2,0.5,0.4,0.7,0.7l0.9-0.7c-0.3-0.3-0.6-0.6-0.9-0.9L125,43.4z M15.9,46.9
	c0-0.2,0-0.3,0-0.5l-1.2-0.1c0,0.2,0,0.4,0,0.6v0.6h1.2V46.9z M126.6,46.4c0,0.2,0,0.3,0,0.5v0.6h1.2v-0.6c0-0.2,0-0.4,0-0.6
	L126.6,46.4z M126.6,50.6v1.2h1.2v-1.2H126.6z M15.9,51.8v-1.2h-1.2v1.2H15.9z M126.6,54.9v1.2h1.2v-1.2H126.6z M15.9,56.1v-1.2
	h-1.2v1.2H15.9z M126.6,59.2v1.2h1.2v-1.2H126.6z M15.9,60.4v-1.2h-1.2v1.2H15.9z M15.9,64.7v-1.2h-1.2v1.2H15.9z M126.6,63.5v1.2
	h1.2v-1.2H126.6z M15.9,69.1v-1.2h-1.2v1.2H15.9z M126.6,67.8v1.2h1.2v-1.2H126.6z M15.9,73.4v-1.2h-1.2v1.2H15.9z M126.6,72.1v1.2
	h1.2v-1.2H126.6z M15.9,77.7v-1.2h-1.2v1.2H15.9z M126.6,76.5v1.2h1.2v-1.2H126.6z M15.9,82v-1.2h-1.2V82H15.9z M126.6,80.8V82h1.2
	v-1.2H126.6z M15.9,86.3v-1.2h-1.2v1.2H15.9z M126.6,85.1v1.2h1.2v-1.2H126.6z M15.9,90.7v-1.2h-1.2v1.2H15.9z M126.6,89.4v1.2h1.2
	v-1.2H126.6z M126.6,93.7V95h1.2v-1.2H126.6z M15.9,95v-1.2h-1.2V95H15.9z M126.6,98.1v1.2h1.2v-1.2H126.6z M15.9,99.3v-1.2h-1.2
	v1.2H15.9z M126.6,102.4v0.6h0v0.6h0.6h0.6V103v-0.6H126.6z M15.9,103v-0.6h-1.2v0.6v0.6h0.6h0.6L15.9,103L15.9,103z M20,102.4h-1.2
	v1.2H20V102.4z M24.2,102.4H23v1.2h1.2V102.4z M28.3,102.4h-1.2v1.2h1.2V102.4z M32.5,102.4h-1.2v1.2h1.2V102.4z M36.6,102.4h-1.2
	v1.2h1.2V102.4z M40.7,102.4h-1.2v1.2h1.2V102.4z M44.9,102.4h-1.2v1.2h1.2V102.4z M49,102.4h-1.2v1.2H49V102.4z M53.2,102.4H52v1.2
	h1.2V102.4z M57.3,102.4h-1.2v1.2h1.2V102.4z M61.5,102.4h-1.2v1.2h1.2V102.4z M65.6,102.4h-1.2v1.2h1.2V102.4z M69.8,102.4h-1.2
	v1.2h1.2V102.4z M73.9,102.4h-1.2v1.2h1.2V102.4z M78.1,102.4h-1.2v1.2h1.2V102.4z M82.2,102.4H81v1.2h1.2V102.4z M86.4,102.4h-1.2
	v1.2h1.2V102.4z M90.5,102.4h-1.2v1.2h1.2V102.4z M94.6,102.4h-1.2v1.2h1.2V102.4z M98.8,102.4h-1.2v1.2h1.2V102.4z M102.9,102.4
	h-1.2v1.2h1.2V102.4z M107.1,102.4h-1.2v1.2h1.2V102.4z M111.2,102.4H110v1.2h1.2V102.4z M115.4,102.4h-1.2v1.2h1.2V102.4z
	 M119.5,102.4h-1.2v1.2h1.2V102.4z M123.7,102.4h-1.2v1.2h1.2V102.4z"/>
</svg>
